X: 7267
T:Irish Slip Jig
R:Slip jig
O:Ireland
M:9/8
K:DMix
F2A ABA AFD|F2A ABc d2A|\
F2A ABA AFA|Bcd e2d cBA :: \
f2a f2a fed|f2a f2a gfe|
f2a f2a fed|g2f e2d cBA:: \
f3 a3 d3|g2f e2d cBA|fgf efe d2A|BAF DFA B2A:|
